app/static/images/icons/land_use_change.svg

<?xml version="1.0" encoding="UTF-8"?>
<svg width="48" height="48" fill="none" version="1.1" viewBox="0 0 48 48" xmlns="http://www.w3.org/2000/svg">
 <path d="m38.045 12.756c-1.2157 0.9946-2.5518 1.8209-3.9682 2.5026-1.4169 0.6887-2.8912 1.2067-4.2224 2.0611-2.5811 1.6453-4.5002 4.1708-5.6515 6.9806 0.1373-1.6134 0.2612-3.2348 0.4401-4.8452 0.1726-1.6178 0.4417-3.2218 0.9235-4.7757 1.2626-0.2905 2.3682-0.9183 3.4327-1.6532 0.9985-0.6911 1.9034-1.5346 2.6026-2.5248 0.7855-1.1227 1.2092-2.3547 1.4862-3.6806 0.1594-0.75856 0.2637-1.528 0.3745-2.2901 0.1103-0.75516 0.2131-1.5039 0.2054-2.2676-0.0092-0.64584-0.6877-1.007-1.2187-0.60821-0.5974 0.44946-1.1815 0.90682-1.7908 1.3277-0.5355 0.36374-1.1081 0.66236-1.6683 0.9827-1.1274 0.64016-2.1879 1.417-3.0592 2.3739-0.9009 0.98255-1.6409 2.1502-1.897 3.4775-0.142 0.71123-0.0808 1.4094-0.0557 2.1257 0.0108 0.3338 0.0216 0.6676 0.0815 0.9979 0.0346 0.1968 0.0757 0.4009 0.1316 0.5923 0.0342 0.1065 0.0897 0.2076 0.1377 0.3152-0.5124 1.2048-0.8682 2.4625-1.1422 3.747-0.2248-0.6545-0.4997-1.2917-0.797-1.9098-0.6241-1.3076-1.3717-2.6449-2.273-3.7852-0.8245-1.0446-1.9252-1.8386-3.0224-2.5837-0.6918-0.46615-1.4179-0.84457-2.1415-1.2575-0.7439-0.42134-1.4099-0.95501-2.0611-1.5015-0.4212-0.3495-1.0419 0.03584-1.0837 0.51844-0.0284 0.39338 0.1029 0.70116 0.2515 1.0587 0.1426 0.34329 0.2268 0.72398 0.3194 1.0845 0.2044 0.74317 0.4868 1.4711 0.6982 2.2148 0.4342 1.5228 0.6766 3.0943 1.1248 4.6182 0.7491 2.5723 2.3024 4.828 4.2271 6.6734 0.5743 0.5478 1.1665 1.0415 1.8172 1.4977 0.3251 0.2316 0.6195 0.5026 0.9594 0.7213 0.28 0.1798 0.5764 0.3261 0.788 0.5841 0.0704 0.0883 0.1496 0.1496 0.2369 0.1975-0.0702 0.7788-0.1472 1.5572-0.2174 2.3361-0.0995-0.2639-0.2129-0.5288-0.3269-0.7867-0.4626-1.0324-1.1657-1.9225-2.0344-2.6442-0.8361-0.6916-1.8387-1.201-2.8751-1.5325-1.2277-0.3868-2.4762-0.5809-3.6578-1.124-0.4391-0.1982-0.9969 0.2819-0.8553 0.7361 0.1966 0.6593 0.5692 1.1996 0.8818 1.7979 0.3061 0.591 0.475 1.2483 0.6879 1.8742 0.4274 1.231 1.0402 2.4059 1.7646 3.4849 0.6991 1.0425 1.5767 1.9313 2.7066 2.5123 1.0493 0.5405 2.1525 0.9115 3.3045 1.0917-0.0265 0.7543-0.0253 1.5105-0.0171 2.2673 0.0112 0.6182 0.0011 1.2419 0.0683 1.8572-0.5016-0.0084-1.0057 0.0176-1.5069 0.0994-1.8064 0.286-3.553 1.2908-4.9279 2.4611-0.7879 0.6716-1.8474 1.6288-2.2458 2.7032-0.0159 0.0266-0.0322 0.0601-0.0486 0.0936-0.3328 0.746-0.3322 1.7034 0.2065 2.3597 0.4865 0.604 1.1948 0.8424 1.9219 1.0127 1.7214 0.4086 3.4643 0.2291 5.2082 0.1329 1.8137-0.0981 3.6562-0.208 5.4734-0.063 1.6783 0.1349 3.4265 0.3651 5.0867-0.0216 1.5115-0.3558 2.4869-1.5966 2.013-3.15-0.4278-1.4184-1.5765-2.417-2.8215-3.145-1.4456-0.8466-3.0679-1.3729-4.6737-1.8356-0.574-0.1663-1.1564-0.3124-1.7482-0.4244-0.045-0.4403-0.0909-0.8668-0.1007-1.3115-0.018-1.1044-0.0425-2.2161 0.0164-3.3218 0.0399-0.7464 0.0862-1.4853 0.14-2.2307 1.6154 0.1373 3.2552-0.0635 4.8127-0.4784 1.5854-0.4129 3.0895-1.0536 4.3578-2.0998 0.6302-0.5165 1.2281-1.07 1.7344-1.7064 0.5366-0.6689 0.9205-1.4459 1.2895-2.2102 0.3849-0.7908 0.7559-1.5827 1.0729-2.3992 0.3264-0.8506 0.5076-1.7186 0.6903-2.6073 0.1877-0.9576 0.4507-1.896 0.6864-2.8433 0.2566-1.0429 0.4994-2.0868 0.8377-3.103 0.2139-0.6437-0.5583-1.1572-1.0769-0.7368l-0.0129-0.0148zm-12.97-0.7344c0.0285-0.6847 0.0143-1.3587 0.1811-2.0265 0.2913-1.1375 1.0406-2.1449 1.8929-2.9367 0.8449-0.78541 1.8172-1.4021 2.8265-1.9536 0.7625-0.41674 1.4735-0.89269 2.1721-1.3904-0.0831 0.86118-0.2355 1.7174-0.3934 2.5523-0.2259 1.1977-0.5653 2.3249-1.2596 3.3431-0.6085 0.89265-1.3939 1.6268-2.2759 2.25-0.647 0.4597-1.3183 0.8692-2.0436 1.1568 0.4336-0.9816 1.0019-1.8979 1.5891-2.7852 0.3134-0.47688 0.6531-0.93105 0.9928-1.3852 0.1626-0.22414 0.3188-0.45568 0.4419-0.71043 0.123-0.25474 0.1642-0.53621 0.2262-0.81616 0.0298-0.12273-0.1179-0.20275-0.1952-0.09733-0.1766 0.22313-0.4175 0.37225-0.6139 0.58008-0.1661 0.17532-0.3456 0.34275-0.5052 0.52548-0.364 0.40386-0.728 0.80772-1.0721 1.2269-0.6655 0.81219-1.3062 1.6679-1.8452 2.5655-0.0402 0.0735-0.0873 0.1464-0.1275 0.2198 0.0075-0.1035 6e-4 -0.2012 8e-3 -0.3047l1e-3 -0.0138zm-5.1187 10.231c-0.9529-0.8111-1.8285-1.7275-2.5866-2.7257-0.7383-0.9828-1.3367-2.0666-1.7488-3.2202-0.4937-1.3745-0.6935-2.8597-1.0659-4.274-0.2193-0.8275-0.4535-1.6422-0.7303-2.4461-0.0753-0.21355-0.1362-0.43301-0.2046-0.64606 1.6092 1.0942 3.4336 1.9126 4.8176 3.3236 0.9227 0.9407 1.5612 2.1453 2.2122 3.2745 0.6753 1.1795 1.2851 2.3959 1.6366 3.7116 0.1481 0.5587 0.2797 1.151 0.3425 1.7313-0.0244 0.241-0.0492 0.489-0.0741 0.7369-0.5805-1.3322-1.2617-2.6231-2.0311-3.851-0.5812-0.9369-1.1093-1.9323-1.7856-2.8067-0.3191-0.4115-0.6764-0.7772-1.0703-1.1178-0.3677-0.3179-0.8564-0.6029-1.1428-0.9843-0.1144-0.1539-0.3291 0.0179-0.2637 0.1753 0.3442 0.8365 0.9581 1.5121 1.3827 2.2989 0.4493 0.8302 0.8397 1.7047 1.2746 2.5408 0.4538 0.8652 0.9145 1.7309 1.34 2.601 0.4375 0.8988 0.7742 1.8388 1.1541 2.7611-0.4826-0.3678-0.9966-0.6893-1.4634-1.0837l0.0069 5e-4zm-3.3965 6.6646c-0.654-0.9907-1.2118-2.0576-1.5911-3.1811-0.1897-0.5617-0.3571-1.1427-0.6181-1.6818-0.0486-0.1006-0.1041-0.2018-0.1596-0.3029 1.5638 0.4666 3.1767 0.7356 4.5345 1.7354 0.8078 0.5994 1.4421 1.3805 1.8651 2.2851 0.2353 0.5095 0.4701 1.026 0.6836 1.5478-0.3563-0.3795-0.7275-0.7462-1.0912-1.1193-0.5456-0.5597-1.0559-1.1237-1.6461-1.645-0.282-0.2493-0.5774-0.5064-0.898-0.703-0.3207-0.1966-0.6587-0.3458-0.9565-0.5685-0.1527-0.1081-0.3822 0.0765-0.2826 0.2432 0.3349 0.5792 0.7838 1.1249 1.207 1.6411 0.4548 0.56 0.8948 1.1329 1.3497 1.6929 0.4544 0.567 0.9603 1.096 1.4221 1.6566 0.2314 0.2734 0.441 0.559 0.6654 0.8319 0.1026 0.1254 0.2052 0.2507 0.3221 0.3701 0.0451 0.0518 0.2473 0.3439 0.1958 0.1876 0.0054 0.0212 0.0109 0.0424 0.0232 0.0641-0.9244-0.143-1.8319-0.4235-2.6739-0.8381-0.9833-0.4872-1.7544-1.3059-2.3514-2.2161zm11.213 11.95c1.0631 0.4444 2.1862 1.0249 2.9299 1.9318 0.2696 0.3247 0.5282 0.8012 0.5414 1.1976 0.0059 0.2086-0.0104 0.2421-0.1468 0.3918-0.0605 0.065-0.2504 0.1831-0.408 0.2411-1.2468 0.4581-2.8136 0.2272-4.1039 0.1272-1.5118-0.123-3.0187-0.1207-4.53-0.0562-1.6928 0.0652-3.3966 0.2822-5.0943 0.2222-0.7167-0.024-1.4945-0.0732-2.1814-0.3169-0.1903-0.0693-0.4337-0.177-0.5243-0.3709-0.1338-0.2732-0.1004-0.7356-0.1142-1.028l0.0015-0.0207c0.4652-0.7434 1.2604-1.3243 1.9308-1.8171 1.0317-0.765 2.1631-1.4603 3.4113-1.842 0.7987-0.2407 1.6255-0.2921 2.4513-0.2325 0.0228 0.071 0.0525 0.1425 0.0822 0.214 0.1793 0.4153 0.7206 0.4544 1.0384 0.2067 0.0962-0.0763 0.1785-0.1536 0.2474-0.2388 0.117 0.0223 0.2404 0.052 0.3574 0.0744 1.4002 0.316 2.8049 0.7642 4.1252 1.3173l-0.0139-1e-3zm8.1287-20.434c-0.2481 0.8285-0.5859 1.6436-0.949 2.4221-0.6582 1.3886-1.3422 2.7475-2.5118 3.7801-1.1102 0.9813-2.3466 1.683-3.7729 2.1143-1.1481 0.3473-2.3363 0.5737-3.526 0.6267 0.4408-0.3082 0.881-0.6094 1.2965-0.9541 1.0298-0.8345 1.9764-1.7721 2.8769-2.7478 0.8781-0.9564 1.8579-1.8708 2.6444-2.9102 0.4076-0.5256 0.7488-1.0976 1.1098-1.6543 0.3457-0.537 0.6522-1.1115 0.7401-1.7503 0.0264-0.1716-0.22-0.2379-0.3132-0.1059-0.721 1.0025-1.4703 2.0099-2.3435 2.8973-0.8653 0.8741-1.8296 1.6717-2.7271 2.5089-0.8969 0.8302-1.7751 1.6895-2.7305 2.46-0.5037 0.4077-1.0446 0.7502-1.5801 1.1139-0.0223 0.0192-0.0516 0.038-0.0739 0.0572 0.0725-0.2307 0.138-0.4618 0.2099-0.6856 0.2431-0.7594 0.4927-1.5115 0.7834-2.2536 0.5492-1.4242 1.3005-2.7505 2.2452-3.9519 0.9139-1.162 2.0142-2.1996 3.2834-2.9682 1.2692-0.7687 2.6562-1.2375 3.9928-1.8765 0.9395-0.4525 1.8487-0.9697 2.7134-1.5455-0.2754 1.0138-0.5241 2.0434-0.7921 3.0508-0.2104 0.7895-0.3385 1.5989-0.5693 2.3801l-0.0064-0.0075z" fill="#000"/>
</svg>

<svg width="48" height="48" viewBox="0 0 48 48" fill="none" xmlns="http://www.w3.org/2000/svg">
<path d="M38.045 12.7561C36.8293 13.7507 35.4932 14.577 34.0768 15.2587C32.6599 15.9474 31.1856 16.4654 29.8544 17.3198C27.2733 18.9651 25.3542 21.4906 24.2029 24.3004C24.3402 22.687 24.4641 21.0656 24.643 19.4552C24.8156 17.8374 25.0847 16.2334 25.5665 14.6795C26.8291 14.389 27.9347 13.7612 28.9992 13.0263C29.9977 12.3352 30.9026 11.4917 31.6018 10.5015C32.3873 9.37883 32.811 8.14679 33.088 6.82093C33.2474 6.06237 33.3517 5.29292 33.4625 4.53086C33.5728 3.7757 33.6756 3.02695 33.6679 2.26328C33.6587 1.61744 32.9802 1.25632 32.4492 1.65507C31.8518 2.10453 31.2677 2.56189 30.6584 2.98274C30.1229 3.34648 29.5503 3.6451 28.9901 3.96544C27.8627 4.6056 26.8022 5.3824 25.9309 6.33935C25.03 7.3219 24.29 8.4895 24.0339 9.81687C23.8919 10.5281 23.9531 11.2263 23.9782 11.9426C23.989 12.2764 23.9998 12.6102 24.0597 12.9405C24.0943 13.1373 24.1354 13.3414 24.1913 13.5328C24.2255 13.6393 24.281 13.7404 24.329 13.848C23.8166 15.0528 23.4608 16.3105 23.1868 17.595C22.962 16.9405 22.6871 16.3033 22.3898 15.6852C21.7657 14.3776 21.0181 13.0403 20.1168 11.9C19.2923 10.8554 18.1916 10.0614 17.0944 9.3163C16.4026 8.85015 15.6765 8.47173 14.9529 8.05879C14.209 7.63745 13.543 7.10378 12.8918 6.55732C12.4706 6.20782 11.8499 6.59316 11.8081 7.07576C11.7797 7.46914 11.911 7.77692 12.0596 8.1345C12.2022 8.47779 12.2864 8.85848 12.379 9.21897C12.5834 9.96214 12.8658 10.6901 13.0772 11.4338C13.5114 12.9566 13.7538 14.5281 14.202 16.052C14.9511 18.6243 16.5044 20.88 18.4291 22.7254C19.0034 23.2732 19.5956 23.7669 20.2463 24.2231C20.5714 24.4547 20.8658 24.7257 21.2057 24.9444C21.4857 25.1242 21.7821 25.2705 21.9937 25.5285C22.0641 25.6168 22.1433 25.6781 22.2306 25.726C22.1604 26.5048 22.0834 27.2832 22.0132 28.0621C21.9137 27.7982 21.8003 27.5333 21.6863 27.2754C21.2237 26.243 20.5206 25.3529 19.6519 24.6312C18.8158 23.9396 17.8132 23.4302 16.7768 23.0987C15.5491 22.7119 14.3006 22.5178 13.119 21.9747C12.6799 21.7765 12.1221 22.2566 12.2637 22.7108C12.4603 23.3701 12.8329 23.9104 13.1455 24.5087C13.4516 25.0997 13.6205 25.757 13.8334 26.3829C14.2608 27.6139 14.8736 28.7888 15.598 29.8678C16.2971 30.9103 17.1747 31.7991 18.3046 32.3801C19.3539 32.9206 20.4571 33.2916 21.6091 33.4718C21.5826 34.2261 21.5838 34.9823 21.592 35.7391C21.6032 36.3573 21.5931 36.981 21.6603 37.5963C21.1587 37.5879 20.6546 37.6139 20.1534 37.6957C18.347 37.9817 16.6004 38.9865 15.2255 40.1568C14.4376 40.8284 13.3781 41.7856 12.9797 42.86C12.9638 42.8866 12.9475 42.9201 12.9311 42.9536C12.5983 43.6996 12.5989 44.657 13.1376 45.3133C13.6241 45.9173 14.3324 46.1557 15.0595 46.326C16.7809 46.7346 18.5238 46.5551 20.2677 46.4589C22.0814 46.3608 23.9239 46.2509 25.7411 46.3959C27.4194 46.5308 29.1676 46.761 30.8278 46.3743C32.3393 46.0185 33.3147 44.7777 32.8408 43.2243C32.413 41.8059 31.2643 40.8073 30.0193 40.0793C28.5737 39.2327 26.9514 38.7064 25.3456 38.2437C24.7716 38.0774 24.1892 37.9313 23.5974 37.8193C23.5524 37.379 23.5065 36.9525 23.4967 36.5078C23.4787 35.4034 23.4542 34.2917 23.5131 33.186C23.553 32.4396 23.5993 31.7007 23.6531 30.9553C25.2685 31.0926 26.9083 30.8918 28.4658 30.4769C30.0512 30.064 31.5553 29.4233 32.8236 28.3771C33.4538 27.8606 34.0517 27.3071 34.558 26.6707C35.0946 26.0018 35.4785 25.2248 35.8475 24.4605C36.2324 23.6697 36.6034 22.8778 36.9204 22.0613C37.2468 21.2107 37.428 20.3427 37.6107 19.454C37.7984 18.4964 38.0614 17.558 38.2971 16.6107C38.5537 15.5678 38.7965 14.5239 39.1348 13.5077C39.3487 12.864 38.5765 12.3505 38.0579 12.7709L38.045 12.7561ZM25.0746 12.0217C25.1031 11.337 25.0889 10.663 25.2557 9.99519C25.547 8.85767 26.2963 7.85029 27.1486 7.05848C27.9935 6.27307 28.9658 5.6564 29.9751 5.10485C30.7376 4.68811 31.4486 4.21216 32.1472 3.7145C32.0641 4.57568 31.9117 5.43185 31.7538 6.26682C31.5279 7.46456 31.1885 8.59168 30.4942 9.60995C29.8857 10.5026 29.1003 11.2368 28.2183 11.86C27.5713 12.3197 26.9 12.7292 26.1747 13.0168C26.6083 12.0352 27.1766 11.1189 27.7638 10.2316C28.0772 9.75472 28.4169 9.30055 28.7566 8.84638C28.9192 8.62224 29.0754 8.3907 29.1985 8.13595C29.3215 7.88121 29.3627 7.59974 29.4247 7.31979C29.4545 7.19706 29.3068 7.11704 29.2295 7.22246C29.0529 7.44559 28.812 7.59471 28.6156 7.80254C28.4495 7.97786 28.27 8.14529 28.1104 8.32802C27.7464 8.73188 27.3824 9.13574 27.0383 9.55491C26.3728 10.3671 25.7321 11.2228 25.1931 12.1204C25.1529 12.1939 25.1058 12.2668 25.0656 12.3402C25.0731 12.2367 25.0662 12.139 25.0736 12.0355L25.0746 12.0217ZM19.9559 22.2528C19.003 21.4417 18.1274 20.5253 17.3693 19.5271C16.631 18.5443 16.0326 17.4605 15.6205 16.3069C15.1268 14.9324 14.927 13.4472 14.5546 12.0329C14.3353 11.2054 14.1011 10.3907 13.8243 9.58684C13.749 9.37329 13.6881 9.15383 13.6197 8.94078C15.2289 10.035 17.0533 10.8534 18.4373 12.2644C19.36 13.2051 19.9985 14.4097 20.6495 15.5389C21.3248 16.7184 21.9346 17.9348 22.2861 19.2505C22.4342 19.8092 22.5658 20.4015 22.6286 20.9818C22.6042 21.2228 22.5794 21.4708 22.5545 21.7187C21.974 20.3865 21.2928 19.0956 20.5234 17.8677C19.9422 16.9308 19.4141 15.9354 18.7378 15.061C18.4187 14.6495 18.0614 14.2838 17.6675 13.9432C17.2998 13.6253 16.8111 13.3403 16.5247 12.9589C16.4103 12.805 16.1956 12.9768 16.261 13.1342C16.6052 13.9707 17.2191 14.6463 17.6437 15.4331C18.093 16.2633 18.4834 17.1378 18.9183 17.9739C19.3721 18.8391 19.8328 19.7048 20.2583 20.5749C20.6958 21.4737 21.0325 22.4137 21.4124 23.336C20.9298 22.9682 20.4158 22.6467 19.949 22.2523L19.9559 22.2528ZM16.5594 28.9174C15.9054 27.9267 15.3476 26.8598 14.9683 25.7363C14.7786 25.1746 14.6112 24.5936 14.3502 24.0545C14.3016 23.9539 14.2461 23.8527 14.1906 23.7516C15.7544 24.2182 17.3673 24.4872 18.7251 25.487C19.5329 26.0864 20.1672 26.8675 20.5902 27.7721C20.8255 28.2816 21.0603 28.7981 21.2738 29.3199C20.9175 28.9404 20.5463 28.5737 20.1826 28.2006C19.637 27.6409 19.1267 27.0769 18.5365 26.5556C18.2545 26.3063 17.9591 26.0492 17.6385 25.8526C17.3178 25.656 16.9798 25.5068 16.682 25.2841C16.5293 25.176 16.2998 25.3606 16.3994 25.5273C16.7343 26.1065 17.1832 26.6522 17.6064 27.1684C18.0612 27.7284 18.5012 28.3013 18.9561 28.8613C19.4105 29.4283 19.9164 29.9573 20.3782 30.5179C20.6096 30.7913 20.8192 31.0769 21.0436 31.3498C21.1462 31.4752 21.2488 31.6005 21.3657 31.7199C21.4108 31.7717 21.613 32.0638 21.5615 31.9075C21.5669 31.9287 21.5724 31.9499 21.5847 31.9716C20.6603 31.8286 19.7528 31.5481 18.9108 31.1335C17.9275 30.6463 17.1564 29.8276 16.5594 28.9174ZM27.7721 40.8676C28.8352 41.312 29.9583 41.8925 30.702 42.7994C30.9716 43.1241 31.2302 43.6006 31.2434 43.997C31.2493 44.2056 31.233 44.2391 31.0966 44.3888C31.0361 44.4538 30.8462 44.5719 30.6886 44.6299C29.4418 45.088 27.875 44.8571 26.5847 44.7571C25.0729 44.6341 23.566 44.6364 22.0547 44.7009C20.3619 44.7661 18.6581 44.9831 16.9604 44.9231C16.2437 44.8991 15.4659 44.8499 14.779 44.6062C14.5887 44.5369 14.3453 44.4292 14.2547 44.2353C14.1209 43.9621 14.1543 43.4997 14.1405 43.2073C14.141 43.2004 14.1415 43.1935 14.142 43.1866C14.6072 42.4432 15.4024 41.8623 16.0728 41.3695C17.1045 40.6045 18.2359 39.9092 19.4841 39.5275C20.2828 39.2868 21.1096 39.2354 21.9354 39.295C21.9582 39.366 21.9879 39.4375 22.0176 39.509C22.1969 39.9243 22.7382 39.9634 23.056 39.7157C23.1522 39.6394 23.2345 39.5621 23.3034 39.4769C23.4204 39.4992 23.5438 39.5289 23.6608 39.5513C25.061 39.8673 26.4657 40.3155 27.786 40.8686L27.7721 40.8676ZM35.9008 20.4337C35.6527 21.2622 35.3149 22.0773 34.9518 22.8558C34.2936 24.2444 33.6096 25.6033 32.44 26.6359C31.3298 27.6172 30.0934 28.3189 28.6671 28.7502C27.519 29.0975 26.3308 29.3239 25.1411 29.3769C25.5819 29.0687 26.0221 28.7675 26.4376 28.4228C27.4674 27.5883 28.414 26.6507 29.3145 25.675C30.1926 24.7186 31.1724 23.8042 31.9589 22.7648C32.3665 22.2392 32.7077 21.6672 33.0687 21.1105C33.4144 20.5735 33.7209 19.999 33.8088 19.3602C33.8352 19.1886 33.5888 19.1223 33.4956 19.2543C32.7746 20.2568 32.0253 21.2642 31.1521 22.1516C30.2868 23.0257 29.3225 23.8233 28.425 24.6605C27.5281 25.4907 26.6499 26.35 25.6945 27.1205C25.1908 27.5282 24.6499 27.8707 24.1144 28.2344C24.0921 28.2536 24.0628 28.2724 24.0405 28.2916C24.113 28.0609 24.1785 27.8298 24.2504 27.606C24.4935 26.8466 24.7431 26.0945 25.0338 25.3524C25.583 23.9282 26.3343 22.6019 27.279 21.4005C28.1929 20.2385 29.2932 19.2009 30.5624 18.4323C31.8316 17.6636 33.2186 17.1948 34.5552 16.5558C35.4947 16.1033 36.4039 15.5861 37.2686 15.0103C36.9932 16.0241 36.7445 17.0537 36.4765 18.0611C36.2661 18.8506 36.138 19.66 35.9072 20.4412L35.9008 20.4337Z" fill="black"/>
</svg>
